!!!OTL: Liebeszwist.
!!!OTL-incipit: ICH WOLLT ES WAERE NACHT
!!!COM: Ges. v. H. Langer
!!!ARE: Europa, Mitteleuropa, Deutschland
!!!SCT: F0859
!!!TXL: @@DE
!!!YEM: Copyright 1995, estate of Helmut Schaffrath.
**kern	**text
*ICvox	*
*M3/8	*
*k[f#c#]	*
*D:	*
!LO:TX:a:t=Heiter.	!
{8a	1._Jch
=1	=1
8a	wollt
8f#	es
16f#	wä-
16e	-re
=2	=2
4d}	Nacht
{16f#	und
16g	mein
=3	=3
8a	Bett-
8a	-chen
16b/	wär
16g	ge-
=4	=4
4f#	-macht,
8r}	.
=5	=5
{16dd/	wollt
16dd/	ich
8b/	ʒu
8dd/	meim
=6	=6
16b/	Schätʒchen
16a	.
4a}	gehn
=7	=7
{16b/	und
16b/	bei
8g	ihr
8b	am
=8	=8
16g	Fen-
16f#	-ſter
4f#}	ſtehn,
=9	=9
{16f#	bis
16d	ſie
8a	mir
8a	auf-
=10	=10
4d}	-macht.
==	==
!!!AGN: erzaehlendes Volks - Lied, Liebe
!!!ONB: ESAC (Essen Associative Code) Database: FINK
!!!AMT: simple triple
!!!AIN: vox
!!!EED: Helmut Schaffrath
!!!EEV: 1.0
!!!GTL: Romanzen und Balladen.
!!Text: Volkslied
!!!source: Musikalischer Hausschatz der Deutschen. Eine Sammlung von über 1000 Liedern und Gesängen mit Singstimmen und Klavierbegleitung. Leipzig, Litterarisches Verlags-Haus.
!!!page: 613
!!!ENC: Anna Maria Matuszewska
!!!EEV: 2025/03/19
*-	*-
